public/apps/atelier-des-idees/src/img/vote_picto_step.svg

<svg xmlns="http://www.w3.org/2000/svg" xmlns:xlink="http://www.w3.org/1999/xlink" width="70" height="70" version="1.1" viewBox="0 0 70 70"><title>Group 36</title><desc>Created with Sketch.</desc><defs><circle id="path-1" cx="31" cy="31" r="31"/><filter id="filter-2" width="122.6%" height="122.6%" x="-11.3%" y="-8.1%" filterUnits="objectBoundingBox"><feOffset dx="0" dy="2" in="SourceAlpha" result="shadowOffsetOuter1"/><feGaussianBlur in="shadowOffsetOuter1" result="shadowBlurOuter1" stdDeviation="2"/><feColorMatrix in="shadowBlurOuter1" type="matrix" values="0 0 0 0 0 0 0 0 0 0 0 0 0 0 0 0 0 0 0.09 0"/></filter></defs><g id="🎀-Site-pages" fill="none" fill-rule="evenodd" stroke="none" stroke-width="1"><g id="ADI---Comment-participer" transform="translate(-726.000000, -1283.000000)"><g id="Group-36" transform="translate(730.000000, 1285.000000)"><g id="Oval"><use fill="#000" fill-opacity="1" filter="url(#filter-2)" xlink:href="#path-1"/><use fill="#FFF" fill-rule="evenodd" xlink:href="#path-1"/></g><path id="Shape" fill-rule="nonzero" stroke="#A6C0ED" d="M17,43 L22.2908894,43 L22.2908894,27.5089255 L17,27.5089255 L17,43 Z M46,28.6456431 C46,27.2222867 44.8095499,26.0577224 43.3545553,26.0577224 L35.0214044,26.0577224 L36.3441268,20.1055048 C36.3441268,19.9761088 36.3441268,19.8467128 36.3441268,19.7173167 C36.3441268,19.1997326 36.0795823,18.6821484 35.8150897,18.2939603 L34.3600432,17 L25.6300756,25.5401383 C25.1009867,25.9283264 24.8364422,26.5753065 24.8364422,27.3516827 L24.8364422,40.2912862 C24.8364422,41.7146425 26.0268923,42.8792069 27.4818869,42.8792069 L39.3863882,42.8792069 C40.4445661,42.8792069 41.3704717,42.2322267 41.7672884,41.3264544 L45.7354555,32.1392853 C45.8677278,31.8804932 45.8677278,31.4923051 45.8677278,31.233513 L45.8677278,28.6455923 L46,28.6455923 C46,28.7750391 46,28.6456431 46,28.6456431 Z"/></g></g></g></svg>

<svg xmlns:xlink="http://www.w3.org/1999/xlink" viewBox="0 0 70 70"><defs><circle id="b" cx="31" cy="31" r="31"/><filter id="a" width="122.6%" height="122.6%" x="-11.3%" y="-8.1%" filterUnits="objectBoundingBox"><feOffset dy="2" in="SourceAlpha" result="shadowOffsetOuter1"/><feGaussianBlur in="shadowOffsetOuter1" result="shadowBlurOuter1" stdDeviation="2"/><feColorMatrix in="shadowBlurOuter1" values="0 0 0 0 0 0 0 0 0 0 0 0 0 0 0 0 0 0 0.09 0"/></filter></defs><g fill="none" fill-rule="evenodd" transform="translate(4 2)"><use fill="#000" filter="url(#a)" xlink:href="#b"/><use fill="#FFF" xlink:href="#b"/><path stroke="#A6C0ED" d="M17 43h5.29V27.509H17V43zm29-14.354c0-1.424-1.19-2.588-2.645-2.588H35.02l1.323-5.952v-.389c0-.517-.264-1.035-.529-1.423L34.36 17l-8.73 8.54c-.529.388-.794 1.035-.794 1.812v12.94c0 1.423 1.19 2.587 2.646 2.587h11.904a2.614 2.614 0 002.381-1.553l3.968-9.187c.133-.259.133-.647.133-.905v-2.588H46c0 .129 0 0 0 0z"/></g></svg>
